!!!OTL: Die schönste G&auml;rtnerin (65a), S. 197
!!!id: T0213
**kern
*clefG2
*k[f#]
*G:
{8d
=1
8.g
16a
8b
8g
4d
16d
16e
8f#
=2
8a
16g
16e
4e
4d}
8r
=3
{8d
=4
8d
8cc
8cc
16b
16a
8g
8b
4b
=5
4a
4a
4g}
=6
{4b
=7
8g
8a
8b
16cc
16a
4b
8r
8d
=8
8g
8b
8dd
16b
16a
4g
4d}
=9
{8d
8cc
8cc
16b
16a
8g
8b
4b
=10
4a
4a
4g}
8r
==
*-
!!!minrhy: 16
!!!meters: 4/4 ]  ZZ[4
!!!cut: Die schönste G&auml;rtnerin (65a), S. 197
!!!reg: Luxemburg
!!!trd: Singendes Volk, Esch-Alzette 1937 posth.
!!!rhy1: X_  X_.XX_X_X__XXX_  X_XXX__X__0_
!!!rhy2: X_  X_X_X_XXX_X_X__  X__X__X__
!!!key: T0213  16  G 4/4 ]  ZZ[4
!!!mod: HEPTATONIK IONISCH]  AMBITUS[8
!!!kad: -51-51
!!!akz: 1-52-5_-5121_1311_-5121_
!!!fot: 'a__b__c__bv_
!!!for: 'a__b__c__bv_
!!!fok: 'M__^a_Sd_^a_
!! PHRAS[VORWIEGEND AUFTAKTIG]
!!!fkt: Liebeslieder
!!!bem: Burglinster, fff Michel Lemmer, 7.1.1914
!! THILL, Mathias:
!! PR[25] 2K[4] 2G[16] 3K[3] 3G[7] 4A[6] 4Ü[0] 5A[0] 6K[0] 6G[0]
!! 7K[4] 7G[0] 8A[0] MEHR[0] SI[41] ABS[68] SR[21] SP[21]
!! ST[15] 2k[0] 2g[12] 3k[9] 3g[4] 4d[1] 4ü[0] 5d[4] 6k[0] 6g[0]
!! 7k[0] 7g[0] 8d[3] mehr[0] si[34] dm[+7] sr[12] sp[22]
!! 1F[53] 2F[37] 3F[4] 4F[0] LF[0] 2P[5] 3P[0] 4P[0] TRI[0] DF[4] AB[75]
!! TF[0] U3K[0] U3[0] U4[0] U4Ü[0] U5[19] U6K[0] U6[4] U7K[0] U7[1]
!! N1[16] N2K[0] N2[13] N3K[0] N3[25] N4[12] N4Ü[0] N5[10] N6K[0] N6[0]
!!!n7k: 0] N7[0] O1[0] O2K[0] O2[0] O3K[0] O3[0] HÖ[0
!!!RNB: symbol: &auml;      = a umlaut  (UTF-8: Å„)
